RestoDelMundo/Dinamarca/Otras Categorias/Hidovre If.svg

<svg xmlns="http://www.w3.org/2000/svg" viewBox="0 0 660 660"><path fill="#fffffc" stroke="#000" stroke-linejoin="round" stroke-miterlimit="1" stroke-width="2.654" d="M115.035 321.87c0 74.333-29.64 162.781-29.64 162.781 95.505 72.452 97.858 135.024 97.858 135.024h275.406s2.353-62.572 97.858-135.024c0 0-29.64-88.448-29.64-162.781v-7.079c0-74.334 29.64-162.782 29.64-162.782-95.505-72.452-97.858-135.024-97.858-135.024H183.252S180.9 79.557 85.394 152.009c0 0 29.64 88.448 29.64 162.782z"/><path fill="#ed1c24" stroke="#000" stroke-linejoin="round" stroke-miterlimit="1" stroke-width="2.654" d="M137.617 332.22c0 62.572-25.877 144.903-25.877 144.903 81.249 71.735 90.33 119.97 90.33 119.97h237.77s12.846-51.997 90.33-119.97c0 0-25.876-82.33-25.876-144.903v-27.78c0-62.572 25.876-144.903 25.876-144.903-83.13-71.735-90.33-119.97-90.33-119.97H202.07s-10.963 56.703-90.33 119.97c0 0 25.877 82.332 25.877 144.903z"/><path d="M480.352 223.755v-52.692H367.91v.235h-.235v116.441h-37.637V126.133h-52.693v161.606h-37.638V171.298h-52.69v285.575h52.69V340.431h37.638v161.606h52.693V340.431h37.637v116.442h52.692V340.431h37.403v-52.692h-37.403v-63.984Z"/><path fill="#fffffc" d="M472.825 216.227V178.59h-97.387v.236h-.235v116.44H322.51V133.66h-37.637v161.606H232.18v-116.44h-37.637v270.519h37.637V332.904h52.693V494.51h37.637V332.904h52.693v116.441h37.636V332.904h37.403v-37.638h-37.403v-79.039Z"/></svg>

<svg enable-background="new 0 0 660 660" viewBox="0 0 660 660" xmlns="http://www.w3.org/2000/svg"><path d="M 115.035 321.87 c 0 74.333 -29.64 162.781 -29.64 162.781 c 95.505 72.452 97.858 135.024 97.858 135.024 h 275.406 c 0 0 2.353 -62.572 97.858 -135.024 c 0 0 -29.64 -88.448 -29.64 -162.781 v -7.079 c 0 -74.334 29.64 -162.782 29.64 -162.782 c -95.505 -72.452 -97.858 -135.024 -97.858 -135.024 H 183.252 c 0 0 -2.352 62.572 -97.858 135.024 c 0 0 29.64 88.448 29.64 162.782 V 321.87 z" fill="#fffffc" stroke="#000" stroke-linejoin="round" stroke-miterlimit="1" stroke-width="2.6542"/><path d="M 137.617 332.22 c 0 62.572 -25.877 144.903 -25.877 144.903 c 81.249 71.735 90.33 119.97 90.33 119.97 h 237.77 c 0 0 12.846 -51.997 90.33 -119.97 c 0 0 -25.876 -82.33 -25.876 -144.903 v -27.78 c 0 -62.572 25.876 -144.903 25.876 -144.903 c -83.13 -71.735 -90.33 -119.97 -90.33 -119.97 H 202.07 c 0 0 -10.963 56.703 -90.33 119.97 c 0 0 25.877 82.332 25.877 144.903 V 332.22 z" fill="#ed1c24" stroke="#000" stroke-linejoin="round" stroke-miterlimit="1" stroke-width="2.6542"/><path d="M 480.352 223.755 L 480.352 171.063 L 367.91 171.063 L 367.91 171.298 L 367.675 171.298 L 367.675 287.739 L 330.038 287.739 L 330.038 126.133 L 277.345 126.133 L 277.345 287.739 L 239.707 287.739 L 239.707 171.298 L 187.017 171.298 L 187.017 456.873 L 239.707 456.873 L 239.707 340.431 L 277.345 340.431 L 277.345 502.037 L 330.038 502.037 L 330.038 340.431 L 367.675 340.431 L 367.675 456.873 L 420.367 456.873 L 420.367 340.431 L 457.77 340.431 L 457.77 287.739 L 420.367 287.739 L 420.367 223.755 Z"/><path d="M 472.825 216.227 L 472.825 178.59 L 375.438 178.59 L 375.438 178.826 L 375.203 178.826 L 375.203 295.266 L 322.51 295.266 L 322.51 133.66 L 284.873 133.66 L 284.873 295.266 L 232.18 295.266 L 232.18 178.826 L 194.543 178.826 L 194.543 449.345 L 232.18 449.345 L 232.18 332.904 L 284.873 332.904 L 284.873 494.51 L 322.51 494.51 L 322.51 332.904 L 375.203 332.904 L 375.203 449.345 L 412.839 449.345 L 412.839 332.904 L 450.242 332.904 L 450.242 295.266 L 412.839 295.266 L 412.839 216.227 Z" fill="#fffffc"/></svg>
